X: 39705
T: Terry 'Cuz' Teehan's
R: barndance
M: 4/4
K: Edorian
B2 B>A B2 B>A|d>BA>F D>EF>A|B2 B>A B2 B>A|d>BA>F E2 E2|
B2 B>A B2 B>A|d>BA>F D>EF>A|E2 B>A B2 B>A|d>BA>F E2 E2||
B>ee>f g>f e2|d2 B>d A2 F>A|B>ee>f g>f e2|d>BA>F E2 E2|
B>ee>f g>f e2|d2 B>d A2 F>A|B>ee>d B>AF>A|D>EF>A E2 E2||
B2 B>A B2 B>A|d>BA>F D>EF>A|
B>ee>f g>f e2|d2 B>d A2 F>A|

